assets/icons/action/new_custom91.svg

<?xml version="1.0"?><svg xmlns="http://www.w3.org/2000/svg" width="52" height="52" viewBox="0 0 52 52"><g fill="#fff"><path d="m48.3 12.1c-2.4-0.7-4.5-2.4-5.9-4.6-1-1.7-1.1-5.5-3.7-5.5h-25.4c-2.6 0-2.6 3.8-3.7 5.5-1.7 2.6-3.8 3.3-6.4 4.8-2.6 1.5-0.2 7.9 0.4 10.2 2.5 8.9 7.2 17.1 14.6 23 2.1 1.7 4.3 3.1 6.7 4.3 2.2 1.1 5.8-2 7.4-3.2 4.2-3 7.6-6.7 10.3-11 2.3-3.7 4.1-7.7 5.4-11.8 0.5-1.7 1-3.4 1.3-5.1 0.3-1.4 1-3.7 0.6-5.1-0.2-0.7-0.9-1.3-1.6-1.5-3.7-1.1 1.1 0.3 0 0z m-3.5 5.6c-2.2 10.7-7.9 20.7-17.5 26.6l-1.3 0.7-1.3-0.8c-11.5-7-15.9-18.3-17.5-26.6l-0.2-1.6 1.4-0.9c2.5-1.5 4.8-4.2 6.2-7l0.6-1.4h21.6l0.4 1c1.4 3 3.8 5.9 6.8 7.6l1 0.6v0.1l-0.2 1.7z m-19.6-6.1c-1.8 0-6.3 0-7.2 0.8-1.5 1.4-2.4 3.4-4 4.7-1.7 1.4-0.9 2.9-0.3 4.8 1.1 3.4 2.6 6.6 4.7 9.6 1 1.5 2.2 3 3.6 4.2 0.4 0.4 4.1 4.1 4.1 1.8v-24.3c-0.1-0.9-0.1-1.6-0.9-1.6z"></path></g></svg>

<svg xmlns="http://www.w3.org/2000/svg" x="0px" y="0px"
	 width="52px" height="52px" viewBox="0 0 52 52" enable-background="new 0 0 52 52" xml:space="preserve">
<g>
	<path fill="#FFFFFF" d="M48.3,12.1c-2.4-0.7-4.5-2.4-5.9-4.6c-1-1.7-1.1-5.5-3.7-5.5H13.3c-2.6,0-2.6,3.8-3.7,5.5
		c-1.7,2.6-3.8,3.3-6.4,4.8C0.6,13.8,3,20.2,3.6,22.5c2.5,8.9,7.2,17.1,14.6,23c2.1,1.7,4.3,3.1,6.7,4.3c2.2,1.1,5.8-2,7.4-3.2
		c4.2-3,7.6-6.7,10.3-11c2.3-3.7,4.1-7.7,5.4-11.8c0.5-1.7,1-3.4,1.3-5.1c0.3-1.4,1-3.7,0.6-5.1C49.7,12.9,49,12.3,48.3,12.1
		C44.6,11,49.4,12.4,48.3,12.1z M44.8,17.7c-2.2,10.7-7.9,20.7-17.5,26.6L26,45l-1.3-0.8c-11.5-7-15.9-18.3-17.5-26.6L7,16l1.4-0.9
		c2.5-1.5,4.8-4.2,6.2-7l0.6-1.4H26h10.7h0.1l0.4,1c1.4,3,3.8,5.9,6.8,7.6l1,0.6V16l0,0L44.8,17.7z"/>
	<path fill="#FFFFFF" d="M25.2,11.6c-1.8,0-6.3,0-7.2,0.8c-1.5,1.4-2.4,3.4-4,4.7c-1.7,1.4-0.9,2.9-0.3,4.8c1.1,3.4,2.6,6.6,4.7,9.6
		c1,1.5,2.2,3,3.6,4.2c0.4,0.4,4.1,4.1,4.1,1.8V13.2C26,12.3,26,11.6,25.2,11.6z"/>
</g>
</svg>
